X:1
T:James Gibb editions
T:Holy, holy, holy - Barnby
%%score [ ( 1 2 ) ( 3 4 ) ]
L:1/8
Q:1/4=90
M:4/4
K:Eb
V:1 treble nm="Midi_74"
V:2 treble 
V:3 bass nm="Midi_74"
V:4 bass 
V:1
"^St Philip (11 12. 12 10)""^Reginald Heber\n(1783-1826)""^Holy, holy, holy""^Joseph Barnby\n(1838-96)" E2 E2 F2 F2 | %1
 G4 B4 | A4 A2 e2 | e4 B4 || G2 G2 G2 F2 | E4 E2 E2 | c2 B2 A2 G2 | F8 ||[M:4/4] E2 E2 F2 F2 | %9
 G4 B4 | A2 G2 A2 e2 | e4 B4 || G4 A2 B2 | A2 G2 F2 E2 | E4 F4 | E8 || A4 G4 |] %17
V:2
 E2 E2 E2 D2 | E4 E4 | E4 E2 A2 | G4 E4 || E2 E2 D2 D2 | E4 _D2 D2 | C2 =E2 F2 _E2 | (E4- D4) || %8
[M:4/4] E2 E2 D2 D2 | _D4 D4 | C2 E2 E2 A2 | G4 E4 || =E4 E2 E2 | C2 C2 C2 C2 | B,4 D4 | E8 || %16
 E4 E4 |] %17
V:3
 G,2 G,2 C2 B,2 | B,4 G,4 | A,4 A,2 C2 | B,4 G,4 || B,2 B,2 B,2 A,2 | G,4 G,2 G,2 | %6
 A,2 G,2 F,2 C2 | (F,4 B,2 A,2) ||[M:4/4] G,2 G,2 A,2 A,2 | B,4 G,4 | %10
"^1. Holy, holy, holy! Lord God Almighty! \nEarly in the morning our song shall rise to thee. \nHoly, holy, holy! Merciful and mighty,\nGod in three Persons, blessed Trinity. \n\n2. Holy, holy, holy! All saints adore thee,\ncasting down their golden crowns around the glassy sea; \ncherubim and seraphim falling down before thee,\nwhich wert, and art, and evermore shalt be. \n\n3. Holy, holy, holy! Though the darkness hide thee,\nthough the eye of sinful man thy glory may not see,\nonly thou art holy; There is none beside thee,\nperfect in power, in love, and purity. \n\n4. Holy, holy, holy! Lord God Almighty!\nAll thy works shall be praise thy Name, in earth, and sky, and sea; \nHoly, holy, holy! Merciful and mighty, \nGod in three Persons, blessed Trinity." A,2 B,2 A,2 C2 | %11
 B,4 G,4 || B,4 A,2 G,2 | A,2 =E,2 F,2 F,2 | G,4 A,4 | G,8 || C4 B,4 |] %17
V:4
 E,2 C,2 A,,2 B,,2 | E,4 E,4 | C,4 C,2 A,,2 | E,4 E,4 || E,2 G,2 B,2 B,,2 | C,4 B,,2 B,,2 | %6
 A,,2 C,2 F,2 A,,2 | B,,8 ||[M:4/4] E,2 E,2 E,2 E,2 | E,4 E,4 | E,2 _D,2 C,2 A,,2 | E,6 _D,2 || %12
 C,4 C,2 C,2 | F,2 G,,2 A,,2 =A,,2 | B,,4 B,,4 | E,8 || A,,4 E,4 |] %17

